nodes/icons/blind-white.svg

<?xml version="1.0" encoding="UTF-8" standalone="no"?>
<svg
   xmlns:dc="http://purl.org/dc/elements/1.1/"
   xmlns:cc="http://creativecommons.org/ns#"
   xmlns:rdf="http://www.w3.org/1999/02/22-rdf-syntax-ns#"
   xmlns:svg="http://www.w3.org/2000/svg"
   xmlns="http://www.w3.org/2000/svg"
   xmlns:sodipodi="http://sodipodi.sourceforge.net/DTD/sodipodi-0.dtd"
   xmlns:inkscape="http://www.inkscape.org/namespaces/inkscape"
   width="60pt"
   height="59pt"
   viewBox="0 0 60 59"
   version="1.1"
   id="svg5"
   sodipodi:docname="blind-white.svg"
   inkscape:version="1.0 (4035a4fb49, 2020-05-01)">
  <defs
     id="defs9" />
  <sodipodi:namedview
     inkscape:document-rotation="0"
     pagecolor="#ffffff"
     bordercolor="#666666"
     borderopacity="1"
     objecttolerance="10"
     gridtolerance="10"
     guidetolerance="10"
     inkscape:pageopacity="0"
     inkscape:pageshadow="2"
     inkscape:window-width="1840"
     inkscape:window-height="1177"
     id="namedview7"
     showgrid="false"
     inkscape:zoom="6.34375"
     inkscape:cx="36.371453"
     inkscape:cy="39.200781"
     inkscape:window-x="72"
     inkscape:window-y="-8"
     inkscape:window-maximized="1"
     inkscape:current-layer="svg5" />
  <g
     style="fill:#ffffff"
     id="surface1"
     transform="matrix(0.89852217,0,0,0.89742006,3.4507389,3.4507389)">
    <path
       style="fill:#ffffff;fill-opacity:1;fill-rule:nonzero;stroke:none"
       d="M 0,0 V 4.539062 H 6.921875 V 6.808594 H 0 v 4.539062 h 6.921875 v 2.269532 H 0 v 4.535156 h 6.921875 v 2.269531 H 0 v 4.539063 h 6.921875 v 2.269531 H 0 v 4.539062 H 9.230469 V 0 Z M 11.539062,0 V 4.539062 H 46.152344 V 6.808594 H 11.539062 v 4.539062 h 34.613282 v 2.269532 H 11.539062 v 4.535156 h 34.613282 v 2.269531 H 11.539062 v 4.539063 h 34.613282 v 2.269531 H 11.539062 v 4.539062 H 48.460938 V 0 Z M 50.769531,0 V 4.539062 H 60 V 0 Z m 0,6.808594 v 4.539062 H 60 V 6.808594 Z m 0,6.808594 v 4.535156 H 60 v -4.535156 z m 0,6.804687 v 4.539063 H 60 v -4.539063 z m 0,6.808594 v 4.539062 H 60 V 27.230469 Z M 9.230469,34.039062 v 22.691407 c 0,1.25 1.035156,2.269531 2.308593,2.269531 h 36.921876 c 1.273437,0 2.308593,-1.019531 2.308593,-2.269531 V 34.039062 H 46.152344 V 54.460938 H 13.847656 V 34.039062 Z m 48.460937,0 c -1.269531,0 -2.308594,1.019532 -2.308594,2.269532 0,1.25 1.039063,2.269531 2.308594,2.269531 1.273438,0 2.308594,-1.019531 2.308594,-2.269531 0,-1.25 -1.035156,-2.269532 -2.308594,-2.269532 z m 0,6.808594 c -1.269531,0 -2.308594,1.019532 -2.308594,2.269532 0,1.246093 1.039063,2.265624 2.308594,2.265624 1.273438,0 2.308594,-1.019531 2.308594,-2.265624 0,-1.25 -1.035156,-2.269532 -2.308594,-2.269532 z m 0,6.804688 c -1.269531,0 -2.308594,1.019531 -2.308594,2.269531 0,1.25 1.039063,2.269531 2.308594,2.269531 1.273438,0 2.308594,-1.019531 2.308594,-2.269531 0,-1.25 -1.035156,-2.269531 -2.308594,-2.269531 z m 0,0"
       id="path2" />
  </g>
  <metadata
     id="metadata846">
    <rdf:RDF>
      <cc:Work
         rdf:about="">
        <dc:title></dc:title>
      </cc:Work>
    </rdf:RDF>
  </metadata>
</svg>

<?xml version="1.0" encoding="UTF-8" standalone="no"?>
<svg
   xmlns:dc="http://purl.org/dc/elements/1.1/"
   xmlns:cc="http://creativecommons.org/ns#"
   xmlns:rdf="http://www.w3.org/1999/02/22-rdf-syntax-ns#"
   xmlns:svg="http://www.w3.org/2000/svg"
   xmlns="http://www.w3.org/2000/svg"
   xmlns:sodipodi="http://sodipodi.sourceforge.net/DTD/sodipodi-0.dtd"
   xmlns:inkscape="http://www.inkscape.org/namespaces/inkscape"
   inkscape:version="1.0 (4035a4fb49, 2020-05-01)"
   sodipodi:docname="blind-white.svg"
   id="svg5"
   version="1.1"
   viewBox="0 0 60 59"
   height="59pt"
   width="60pt">
  <metadata
     id="metadata11">
    <rdf:RDF>
      <cc:Work
         rdf:about="">
        <dc:format>image/svg+xml</dc:format>
        <dc:type
           rdf:resource="http://purl.org/dc/dcmitype/StillImage" />
        <dc:title></dc:title>
      </cc:Work>
    </rdf:RDF>
  </metadata>
  <defs
     id="defs9" />
  <sodipodi:namedview
     inkscape:current-layer="svg5"
     inkscape:window-maximized="0"
     inkscape:window-y="0"
     inkscape:window-x="80"
     inkscape:cy="50.064768"
     inkscape:cx="34.322839"
     inkscape:zoom="6.34375"
     showgrid="false"
     id="namedview7"
     inkscape:window-height="1111"
     inkscape:window-width="1832"
     inkscape:pageshadow="2"
     inkscape:pageopacity="0"
     guidetolerance="10"
     gridtolerance="10"
     objecttolerance="10"
     borderopacity="1"
     bordercolor="#666666"
     pagecolor="#ffffff" />
  <g
     style="fill:#ffffff"
     id="surface1">
    <path
       id="path2"
       d="M 0 0 L 0 4.539062 L 6.921875 4.539062 L 6.921875 6.808594 L 0 6.808594 L 0 11.347656 L 6.921875 11.347656 L 6.921875 13.617188 L 0 13.617188 L 0 18.152344 L 6.921875 18.152344 L 6.921875 20.421875 L 0 20.421875 L 0 24.960938 L 6.921875 24.960938 L 6.921875 27.230469 L 0 27.230469 L 0 31.769531 L 9.230469 31.769531 L 9.230469 0 Z M 11.539062 0 L 11.539062 4.539062 L 46.152344 4.539062 L 46.152344 6.808594 L 11.539062 6.808594 L 11.539062 11.347656 L 46.152344 11.347656 L 46.152344 13.617188 L 11.539062 13.617188 L 11.539062 18.152344 L 46.152344 18.152344 L 46.152344 20.421875 L 11.539062 20.421875 L 11.539062 24.960938 L 46.152344 24.960938 L 46.152344 27.230469 L 11.539062 27.230469 L 11.539062 31.769531 L 48.460938 31.769531 L 48.460938 0 Z M 50.769531 0 L 50.769531 4.539062 L 60 4.539062 L 60 0 Z M 50.769531 6.808594 L 50.769531 11.347656 L 60 11.347656 L 60 6.808594 Z M 50.769531 13.617188 L 50.769531 18.152344 L 60 18.152344 L 60 13.617188 Z M 50.769531 20.421875 L 50.769531 24.960938 L 60 24.960938 L 60 20.421875 Z M 50.769531 27.230469 L 50.769531 31.769531 L 60 31.769531 L 60 27.230469 Z M 9.230469 34.039062 L 9.230469 56.730469 C 9.230469 57.980469 10.265625 59 11.539062 59 L 48.460938 59 C 49.734375 59 50.769531 57.980469 50.769531 56.730469 L 50.769531 34.039062 L 46.152344 34.039062 L 46.152344 54.460938 L 13.847656 54.460938 L 13.847656 34.039062 Z M 57.691406 34.039062 C 56.421875 34.039062 55.382812 35.058594 55.382812 36.308594 C 55.382812 37.558594 56.421875 38.578125 57.691406 38.578125 C 58.964844 38.578125 60 37.558594 60 36.308594 C 60 35.058594 58.964844 34.039062 57.691406 34.039062 Z M 57.691406 40.847656 C 56.421875 40.847656 55.382812 41.867188 55.382812 43.117188 C 55.382812 44.363281 56.421875 45.382812 57.691406 45.382812 C 58.964844 45.382812 60 44.363281 60 43.117188 C 60 41.867188 58.964844 40.847656 57.691406 40.847656 Z M 57.691406 47.652344 C 56.421875 47.652344 55.382812 48.671875 55.382812 49.921875 C 55.382812 51.171875 56.421875 52.191406 57.691406 52.191406 C 58.964844 52.191406 60 51.171875 60 49.921875 C 60 48.671875 58.964844 47.652344 57.691406 47.652344 Z M 57.691406 47.652344 "
       style="stroke:none;fill-rule:nonzero;fill:#ffffff;fill-opacity:1" />
  </g>
</svg>
